X:1
T: Anne Marie's Reel
N:
C:
S:
A:
O:
R:
M:4/4
K:G
I:speed 232
%W:
% voice 1 (1 lines, 62 notes)
K:G
M:4/4
L:1/16
G4 |G,2 B,2 D2 G2 B2 A2 G2 B2 |d2 g2 f2 g2 e2 g2 d2 B2 |c2 A2 f2 e2 d2 c2 B2 A2 |G2 d2 ^c2 e2 d4 d4 |G,2 B,2 D2 G2 B2 A2 G2 B2 |d2 g2 f2 g2 e2 g2 d2 B2 |c2 A2 f2 e2 d2 c2 B2 A2 |G2 B2 A4/3 B4/3 A4/3 |G4 G4
%W:
% voice 1 (1 lines, 62 notes)
G,2 B,2 D2 G2 |B2 A2 G2 B2 d2 g2 f2 g2 |e2 g2 d2 B2 c2 A2 f2 e2 |d2 c2 B2 A2 G2 d2 ^c2 e2 |d4 d4 G,2 B,2 D2 G2 |B2 A2 G2 B2 d2 g2 f2 g2 |e2 g2 d2 B2 c2 A2 f2 e2 |d2 c2 B2 A2 G2 B2 A4/3 |B4/3 A4/3 G4 A2 G2 |
%W:
% voice 1 (1 lines, 64 notes)
K:D
F2 A2 d2 A2 B2 d2 A2 d2 |f2 d2 a2 d2 f2 a2 d2 f2 |e4/3 f4/3 e4/3 c2 e2 |g2 e2 c2 e2 d2 f2 e2 d2 |c2 B2 A2 G2 F2 A2 d2 A2 |B2 d2 A2 d2 f2 d2 a2 d2 |f2 a2 d2 f2 e4/3 f4/3 |e4/3 c2 e2 g2 e2 c2 e2 |e2 d2 d4 d4 A2 G2 |
%W:
% voice 1 (1 lines, 62 notes)
F2 A2 d2 A2 B2 d2 A2 d2 |f2 d2 a2 d2 f2 a2 d2 f2 |e4/3 f4/3 e4/3 c2 e2 |g2 e2 c2 e2 d2 f2 e2 d2 |c2 B2 A2 G2 F2 A2 d2 A2 |B2 d2 A2 d2 f2 d2 a2 d2 |f2 a2 d2 f2 e4/3 f4/3 |e4/3 c2 e2 g2 e2 c2 e2 |e2 d2 d4 D4 ||
